X:848
T:Vasen
C: Kjell-Erik Eriksson
Z:Transcribed to abc by Robert Boström
M:2/4
L:1/16
K:D
ABc|:"D"d3f edcA|"G"BABc "D"d2AF|"G"G3B "D"AFD2|
"G (Em)"GFGB "A"ABcA|"D"d3f edcA|"G"BABc "D"d2ef|"G"g3e "D"f2de|
|1 "A"c2"D" d2- dABc :|2 "A"c2"D"d2- d4|:"Em"g2ge f2a2|abag e3f|
g2ge "D"f2d2|dcA2 "Em"B4|g2ge f2a2|abag e3f|
g2ge "D"f2d2|1dcA2 "G"B4:|2dcA2 "G"B4-||B2A2 BABc|
d3f ecA2|d4- dABc"D.C."||
(:musicend:)

%green% Har Kjell-Erik Eriksson gett sitt ok till att noterna postas här? / Nils
(:music:)
